X: 361
T: Grey Day Light
R: reel
M: C
L: 1/8
Z: 2012 John Chambers <jc:trillian.mit.edu>
B: J. Anderson "Budget of Strathspeys, Reels and Country Dances" (Early 1800s) p.36 #1
F: http://imslp.org/wiki/Anderson%27s_Budget_of_Strathspeys,_Reels_and_Country_Dances_(Various)
K: D
[|\
D2(FD) ADFD | EFED =c2(ce) | D2(FD) ADFD | EEdc d2(df) |
D2(FD) ADFD | E2(EG) =c2(ce) | dcBd AGFA | EEdc d2(df) |]
Adfd gefd | efed c3e | Adfd gefd | geaf d2(df) |
Adfd gefd | efed =c3e | dcBd AGFA | Edce d2d2 |]

%%sep 2 1 500
%%sep 1 1 500

